images/optimaal-digitaal/icon-handschud.svg

<?xml version="1.0" encoding="UTF-8"?>
<svg width="100px" height="60px" viewBox="0 0 100 60" version="1.1" xmlns="http://www.w3.org/2000/svg" xmlns:xlink="http://www.w3.org/1999/xlink">
    <!-- Generator: Sketch 61.2 (89653) - https://sketch.com -->
    <title>icon-handschud</title>
    <desc>Created with Sketch.</desc>
    <g id="Page-1" stroke="none" stroke-width="1" fill="none" fill-rule="evenodd">
        <g id="Artboard" transform="translate(0.000000, -291.000000)" fill="#FFFFFF">
            <path d="M75.6959,295.2033 L84.8409,326.1723 L99.1119,322.0363 L90.1399,291.0603 L75.6959,295.2033 Z M55.6469,340.8533 L54.6289,340.0093 C54.3999,341.0053 53.9749,341.9483 53.3419,342.7373 L51.9219,344.6053 C52.4859,345.0263 53.1339,345.2943 53.7959,345.2733 C54.4109,345.2543 55.0079,345.0453 55.4909,344.6493 C56.6339,343.6913 56.7169,341.9973 55.6469,340.8533 L55.6469,340.8533 Z M49.6059,336.3583 C48.3619,335.4713 46.5499,335.7983 45.5479,337.0613 L43.1189,340.2433 C42.1299,341.5113 42.3339,343.2523 43.5809,344.1263 C44.8289,345.0003 46.6379,344.6913 47.6339,343.4113 L50.0549,340.2333 C51.0609,338.9743 50.8569,337.2313 49.6059,336.3583 L49.6059,336.3583 Z M41.9939,339.4563 L44.4069,336.2913 C45.4039,335.0243 45.1999,333.2863 43.9529,332.4043 C42.7009,331.5263 40.8969,331.8513 39.8999,333.1203 L37.4829,336.2763 C36.4859,337.5483 36.6979,339.2943 37.9449,340.1683 C39.1839,341.0423 40.9969,340.7323 41.9939,339.4563 L41.9939,339.4563 Z M36.3179,335.5363 L38.7669,332.3373 C39.7519,331.0783 39.5519,329.3283 38.3039,328.4533 C37.0609,327.5793 35.2529,327.8933 34.2589,329.1693 L31.8149,332.3643 C30.8179,333.6363 31.0409,335.3313 32.2929,336.2183 C33.5489,337.0963 35.3249,336.8113 36.3179,335.5363 L36.3179,335.5363 Z M30.7019,331.5563 L33.1189,328.3913 C34.1119,327.1193 33.9119,325.3813 32.6639,324.5033 C31.4129,323.6213 29.5999,323.9473 28.6109,325.2113 L26.1899,328.3843 C25.1929,329.6473 25.4009,331.3903 26.6439,332.2643 C27.8869,333.1383 29.7089,332.8233 30.7019,331.5563 L30.7019,331.5563 Z M76.1659,326.4943 C76.7199,327.6623 77.0169,328.9383 76.9249,330.2313 C76.7079,333.6653 74.2329,336.3033 71.1189,337.0383 C70.1399,339.2723 68.2079,340.7973 65.9439,341.3453 C65.0029,343.4913 63.0789,345.1153 60.7239,345.6853 C59.4699,348.4873 56.8509,349.9923 53.9439,350.0843 C51.8129,350.1523 49.7739,349.4613 48.2739,348.0413 C44.4939,349.8313 40.4129,348.0923 38.9429,344.7703 C36.4729,344.5673 34.3119,343.0493 33.3119,340.8283 C30.8289,340.6133 28.6509,339.0823 27.6459,336.8613 C22.7219,336.4483 19.8249,331.1573 22.3709,326.7153 C21.4019,326.5063 20.3179,326.3503 19.2499,326.1863 L20.6389,320.0903 C22.8169,320.4343 24.8389,320.8623 26.6869,321.3783 C30.3709,318.5533 35.5309,319.8773 37.3019,323.8473 C39.8219,324.0523 41.9719,325.6173 42.9429,327.8023 C45.4209,328.0043 47.5899,329.5183 48.5869,331.7483 C51.6449,331.9903 54.2889,334.2663 54.7589,337.4793 L54.7969,338.4093 L56.7079,340.0103 C57.7869,341.1783 59.5579,341.2583 60.6859,340.3213 C61.8379,339.3633 61.9419,337.7023 60.8769,336.5573 L54.6919,331.4673 C54.0249,330.9133 54.8569,329.8913 55.5399,330.4443 L61.8689,335.6503 C62.9679,336.8303 64.7699,336.9303 65.8849,335.9933 C67.0329,335.0473 67.1079,333.3463 66.0459,332.2023 L58.0019,325.7273 C57.3159,325.1913 58.1509,324.1523 58.8299,324.7013 L67.0769,331.3383 C68.1379,332.4703 69.9209,332.6323 71.0849,331.6823 C72.2249,330.7363 72.4459,329.1333 70.9459,327.5733 C65.6789,323.1433 59.5999,317.9923 53.3389,312.4413 C51.9369,314.5023 44.5499,318.9293 39.9949,319.0743 C35.4399,319.2193 32.5599,316.5203 31.7239,313.7853 C30.9999,311.4023 31.7849,309.0753 33.7309,307.8553 C35.8989,306.4933 37.9879,304.5703 40.0149,302.4103 C36.6799,300.0933 34.9949,300.9243 31.4809,302.7353 C29.4349,303.7843 27.0069,305.0313 23.9089,305.6503 L25.4989,298.6963 C30.9149,296.5073 35.8139,291.7213 44.0919,297.7623 L46.0469,295.4183 C47.6199,293.5203 49.7159,292.3463 52.1599,292.2683 C53.9609,292.2113 55.9389,292.8133 58.0289,293.8053 C64.4019,296.8813 67.6629,298.6913 72.4179,298.6973 L74.2419,304.8733 L74.2099,304.8743 C66.7929,305.2463 63.0919,303.1273 55.3669,299.3963 C53.2139,298.3773 51.7779,298.1963 50.8189,299.3593 C46.9019,304.1133 42.7349,309.1613 38.0389,312.4273 C40.4659,314.2433 46.3169,310.2703 48.6219,308.2873 C49.6279,307.4243 51.1959,306.2713 53.2189,306.2063 C55.5029,306.1343 57.2059,307.4483 58.4379,308.5993 C61.3349,311.3183 69.3639,318.1283 72.9199,321.1273 C74.6799,320.0713 76.4469,319.2173 78.2539,318.4573 L80.0289,324.4653 C78.7289,325.0603 77.4519,325.7293 76.1659,326.4943 L76.1659,326.4943 Z M-0.0001,325.1863 L6.9859,293.7043 L21.6639,296.9203 L14.5049,328.4083 L-0.0001,325.1863 Z" id="icon-handschud"></path>
        </g>
    </g>
</svg>

<svg height="60" viewBox="0 0 100 60" width="100" xmlns="http://www.w3.org/2000/svg"><path d="m75.6959 295.2033 9.145 30.969 14.271-4.136-8.972-30.976zm-20.049 45.65-1.018-.844c-.229.996-.654 1.939-1.287 2.728l-1.42 1.868c.564.421 1.212.689 1.874.668.615-.019 1.212-.228 1.695-.624 1.143-.958 1.226-2.652.156-3.796zm-6.041-4.495c-1.244-.887-3.056-.56-4.058.703l-2.429 3.182c-.989 1.268-.785 3.009.462 3.883 1.248.874 3.057.565 4.053-.715l2.421-3.178c1.006-1.259.802-3.002-.449-3.875zm-7.612 3.098 2.413-3.165c.997-1.267.793-3.005-.454-3.887-1.252-.878-3.056-.553-4.053.716l-2.417 3.156c-.997 1.272-.785 3.018.462 3.892 1.239.874 3.052.564 4.049-.712zm-5.676-3.92 2.449-3.199c.985-1.259.785-3.009-.463-3.884-1.243-.874-3.051-.56-4.045.716l-2.444 3.195c-.997 1.272-.774 2.967.478 3.854 1.256.878 3.032.593 4.025-.682zm-5.616-3.98 2.417-3.165c.993-1.272.793-3.01-.455-3.888-1.251-.882-3.064-.556-4.053.708l-2.421 3.173c-.997 1.263-.789 3.006.454 3.88s3.065.559 4.058-.708zm45.464-5.062c.554 1.168.851 2.444.759 3.737-.217 3.434-2.692 6.072-5.806 6.807-.979 2.234-2.911 3.759-5.175 4.307-.941 2.146-2.865 3.77-5.22 4.34-1.254 2.802-3.873 4.307-6.78 4.399-2.131.068-4.17-.623-5.67-2.043-3.78 1.79-7.861.051-9.331-3.271-2.47-.203-4.631-1.721-5.631-3.942-2.483-.215-4.661-1.746-5.666-3.967-4.924-.413-7.821-5.704-5.275-10.146-.969-.209-2.053-.365-3.121-.529l1.389-6.096c2.178.344 4.2.772 6.048 1.288 3.684-2.825 8.844-1.501 10.615 2.469 2.52.205 4.67 1.77 5.641 3.955 2.478.202 4.647 1.716 5.644 3.946 3.058.242 5.702 2.518 6.172 5.731l.038.93 1.911 1.601c1.079 1.168 2.85 1.248 3.978.311 1.152-.958 1.256-2.619.191-3.764l-6.185-5.09c-.667-.554.165-1.576.848-1.023l6.329 5.206c1.099 1.18 2.901 1.28 4.016.343 1.148-.946 1.223-2.647.161-3.791l-8.044-6.475c-.686-.536.149-1.575.828-1.026l8.247 6.637c1.061 1.132 2.844 1.294 4.008.344 1.14-.946 1.361-2.549-.139-4.109-5.267-4.43-11.346-9.581-17.607-15.132-1.402 2.061-8.789 6.488-13.344 6.633s-7.435-2.554-8.271-5.289c-.724-2.383.061-4.71 2.007-5.93 2.168-1.362 4.257-3.285 6.284-5.445-3.335-2.317-5.02-1.486-8.534.325-2.046 1.049-4.474 2.296-7.572 2.915l1.59-6.954c5.416-2.189 10.315-6.975 18.593-.934l1.955-2.344c1.573-1.898 3.669-3.072 6.113-3.15 1.801-.057 3.779.545 5.869 1.537 6.373 3.076 9.634 4.886 14.389 4.892l1.824 6.176-.032.001c-7.417.372-11.118-1.747-18.843-5.478-2.153-1.019-3.589-1.2-4.548-.037-3.917 4.754-8.084 9.802-12.78 13.068 2.427 1.816 8.278-2.157 10.583-4.14 1.006-.863 2.574-2.016 4.597-2.081 2.284-.072 3.987 1.242 5.219 2.393 2.897 2.719 10.926 9.529 14.482 12.528 1.76-1.056 3.527-1.91 5.334-2.67l1.775 6.008c-1.3.595-2.577 1.264-3.863 2.029zm-76.166-1.308 6.986-31.482 14.678 3.216-7.159 31.488z" fill="#fff" fill-rule="evenodd" transform="translate(0 -291)"/></svg>
